public/svg/alertsign-02.svg

<?xml version="1.0" encoding="UTF-8"?>
<svg id="Objects" xmlns="http://www.w3.org/2000/svg" viewBox="0 0 1159 1010">
  <defs>
    <style>
      .cls-1 {
        fill: #fff;
      }

      .cls-2 {
        fill: #ef3c3c;
      }
    </style>
  </defs>
  <path class="cls-1" d="m997.42,906.23H161.58c-37.88,0-61.36-41.22-42.04-73.8L537.46,127.72c18.93-31.92,65.14-31.92,84.07,0l417.92,704.71c19.32,32.58-4.16,73.8-42.04,73.8Z"/>
  <path class="cls-2" d="m579.5,148.66l425.98,718.31H153.52L579.5,148.66m0-62.54c-17,0-34,8.33-43.89,25L99.32,846.82c-20.17,34.01,4.34,77.05,43.89,77.05h872.59c39.54,0,64.06-43.04,43.89-77.05L623.39,111.12c-9.88-16.66-26.88-25-43.89-25h0Z"/>
  <g>
    <path d="m548.86,673.86l-21.34-317.16c-1.93-28.71,19.78-53.55,48.49-55.48,28.71-1.93,53.55,19.78,55.48,48.49.15,2.26.13,4.79,0,7l-21.34,317.16c-3.68,38.02-57.66,37.93-61.29,0h0Z"/>
    <circle cx="579.5" cy="789.15" r="42.52"/>
  </g>
</svg>

<?xml version="1.0" encoding="utf-8"?>
<!-- Generator: Adobe Illustrator 27.2.0, SVG Export Plug-In . SVG Version: 6.00 Build 0)  -->
<svg version="1.1" id="Objects" xmlns="http://www.w3.org/2000/svg" xmlns:xlink="http://www.w3.org/1999/xlink" x="0px" y="0px"
	 viewBox="0 0 1159 1010" style="enable-background:new 0 0 1159 1010;" xml:space="preserve">
<style type="text/css">
	.st0{fill:#FFFFFF;}
	.st1{fill:#EF3C3C;}
</style>
<g>
	<path class="st0" d="M997.4,906.2H161.6c-37.9,0-61.4-41.2-42-73.8l417.9-704.7c18.9-31.9,65.1-31.9,84.1,0l417.9,704.7
		C1058.8,865,1035.3,906.2,997.4,906.2L997.4,906.2z"/>
	<path class="st1" d="M579.5,148.7l426,718.3h-852L579.5,148.7 M579.5,86.1c-17,0-34,8.3-43.9,25L99.3,846.8
		c-20.2,34,4.3,77,43.9,77h872.6c39.5,0,64.1-43,43.9-77L623.4,111.1C613.5,94.5,596.5,86.1,579.5,86.1L579.5,86.1z"/>
	<g>
		<path d="M548.9,673.9l-21.3-317.2c-1.9-28.7,19.8-53.5,48.5-55.5c28.7-1.9,53.5,19.8,55.5,48.5c0.2,2.3,0.1,4.8,0,7l-21.3,317.2
			C606.5,711.9,552.5,711.8,548.9,673.9L548.9,673.9L548.9,673.9z"/>
		<circle cx="579.5" cy="789.2" r="42.5"/>
	</g>
</g>
</svg>
